X: 1
T: PADDY'S FAREWELL TO AMERICA -- JIG
C: Tom Doyle
B: Ryan's Mammoth Collection of Fiddle Tunes
R: JIG
M: 6/8
L: 1/8
Z: Contributed 20000422015550 by John Chambers jc:ecf-guest.mit.edu
K: G
 vdBG efg | dBG AFD | GFG Bge | dBG A3 |
| dBG efg | dBG AFD | EG"4"e dBG | AGG G2z :|
|: vgeg fdf | ec"4"e dBG | geg dBG | BAA A3 |
| geg fdf | ec"4"e dBG | EG"4"e dBG | AGG G2z :|
